src/assets/images/oss/large/ts.svg

<svg width="210" height="209" viewBox="0 0 210 209" fill="none" xmlns="http://www.w3.org/2000/svg">
<path d="M0.934204 104.934V209H105H209.066V104.934V0.868408H105H0.934204V104.934Z" fill="#007ACC"/>
<path d="M168.662 96.6419C173.948 97.9634 177.978 100.309 181.678 104.141C183.594 106.19 186.436 109.923 186.667 110.815C186.733 111.079 177.681 117.158 172.197 120.561C171.998 120.693 171.206 119.834 170.314 118.512C167.638 114.614 164.829 112.929 160.535 112.632C154.225 112.202 150.161 115.506 150.194 121.023C150.194 122.642 150.425 123.6 151.086 124.921C152.474 127.796 155.051 129.514 163.145 133.015C178.044 139.425 184.42 143.653 188.385 149.666C192.812 156.372 193.803 167.076 190.796 175.038C187.493 183.694 179.3 189.574 167.77 191.524C164.202 192.151 155.744 192.052 151.912 191.358C143.554 189.872 135.625 185.742 130.736 180.324C128.819 178.21 125.086 172.693 125.318 172.296C125.417 172.164 126.276 171.635 127.234 171.074C128.159 170.545 131.661 168.53 134.964 166.614L140.944 163.145L142.199 164.995C143.95 167.671 147.783 171.338 150.095 172.56C156.735 176.062 165.854 175.567 170.347 171.536C172.263 169.785 173.056 167.968 173.056 165.292C173.056 162.881 172.758 161.823 171.503 160.006C169.884 157.694 166.58 155.745 157.198 151.681C146.461 147.056 141.836 144.182 137.607 139.623C135.162 136.98 132.85 132.751 131.892 129.216C131.099 126.276 130.901 118.909 131.528 115.935C133.742 105.562 141.572 98.3268 152.87 96.1794C156.537 95.4857 165.061 95.75 168.662 96.6419Z" fill="white"/>
<path d="M119.8 105.331L119.866 113.854H106.321H92.7764V152.342V190.83H83.1957H73.615V152.342V113.854H60.07H46.5249V105.496C46.5249 100.871 46.624 97.0054 46.7562 96.9063C46.8553 96.7741 63.3406 96.708 83.3278 96.7411L119.701 96.8402L119.8 105.331Z" fill="white"/>
</svg>

<svg width="210" height="209" fill="none" xmlns="http://www.w3.org/2000/svg"><path d="M.934 104.934V209h208.132V.868H.934v104.066z" fill="#007ACC"/><path d="M168.662 96.642c5.286 1.321 9.316 3.667 13.016 7.499 1.916 2.049 4.758 5.782 4.989 6.674.066.264-8.986 6.343-14.47 9.746-.199.132-.991-.727-1.883-2.049-2.676-3.898-5.485-5.583-9.779-5.88-6.31-.43-10.374 2.874-10.341 8.391 0 1.619.231 2.577.892 3.898 1.388 2.875 3.965 4.593 12.059 8.094 14.899 6.41 21.275 10.638 25.24 16.651 4.427 6.706 5.418 17.41 2.411 25.372-3.303 8.656-11.496 14.536-23.026 16.486-3.568.627-12.026.528-15.858-.166-8.358-1.486-16.287-5.616-21.176-11.034-1.917-2.114-5.65-7.631-5.418-8.028.099-.132.958-.661 1.916-1.222.925-.529 4.427-2.544 7.73-4.46l5.98-3.469 1.255 1.85c1.751 2.676 5.584 6.343 7.896 7.565 6.64 3.502 15.759 3.007 20.252-1.024 1.916-1.751 2.709-3.568 2.709-6.244 0-2.411-.298-3.469-1.553-5.286-1.619-2.312-4.923-4.261-14.305-8.325-10.737-4.625-15.362-7.499-19.591-12.058-2.445-2.643-4.757-6.872-5.715-10.407-.793-2.94-.991-10.307-.364-13.281 2.214-10.373 10.044-17.608 21.342-19.756 3.667-.693 12.191-.429 15.792.463zM119.8 105.331l.066 8.523h-27.09v76.976H73.615v-76.976h-27.09v-8.358c0-4.625.099-8.49.231-8.59.1-.132 16.585-.198 36.572-.165l36.373.1.099 8.49z" fill="#fff"/></svg>
